X: 5308
T: Brown-Sailed Boat, The
R: strathspey
M: 4/4
K: Edorian
A|B2BA B2BA|(3Bcd AB FDFA|B2BA B2BA|(3Bcd FA BEE:|
f|gfef gbag|fede fdab|gfef (3gfe be|Bdfa geef|
gfef gbag|fede fdab|(3gab (3fga (3efe cA|BdAd BEE||

